Numix-GalliumOS/32/mimetypes/application-rss.svg

<?xml version="1.0" encoding="UTF-8" standalone="no"?>
<svg
   xmlns:dc="http://purl.org/dc/elements/1.1/"
   xmlns:cc="http://creativecommons.org/ns#"
   xmlns:rdf="http://www.w3.org/1999/02/22-rdf-syntax-ns#"
   xmlns:svg="http://www.w3.org/2000/svg"
   xmlns="http://www.w3.org/2000/svg"
   xmlns:sodipodi="http://sodipodi.sourceforge.net/DTD/sodipodi-0.dtd"
   xmlns:inkscape="http://www.inkscape.org/namespaces/inkscape"
   width="32"
   height="32"
   viewBox="0 0 32 32"
   id="svg2"
   version="1.1"
   inkscape:version="0.48.5 r10040"
   sodipodi:docname="application-rss.svg">
  <metadata
     id="metadata16">
    <rdf:RDF>
      <cc:Work
         rdf:about="">
        <dc:format>image/svg+xml</dc:format>
        <dc:type
           rdf:resource="http://purl.org/dc/dcmitype/StillImage" />
      </cc:Work>
    </rdf:RDF>
  </metadata>
  <defs
     id="defs14" />
  <sodipodi:namedview
     pagecolor="#ffffff"
     bordercolor="#666666"
     borderopacity="1"
     objecttolerance="10"
     gridtolerance="10"
     guidetolerance="10"
     inkscape:pageopacity="0"
     inkscape:pageshadow="2"
     inkscape:window-width="1280"
     inkscape:window-height="970"
     id="namedview12"
     showgrid="true"
     inkscape:zoom="7.375"
     inkscape:cx="9.6419298"
     inkscape:cy="11.508303"
     inkscape:window-x="0"
     inkscape:window-y="0"
     inkscape:window-maximized="1"
     inkscape:current-layer="svg2">
    <inkscape:grid
       type="xygrid"
       id="grid3004" />
  </sodipodi:namedview>
  <path
     style="fill:#ff6401;fill-opacity:1"
     d="M 5.335888,2.98e-4 C 4.648414,3.13e-4 4,0.676789 4,1.394032 L 4,30.606268 C 4,31.282757 4.687474,32 5.335888,32 l 21.327333,0 c 0.648413,0 1.335888,-0.717243 1.335888,-1.393732 L 28.000001,9.0000004 19.000001,0 z"
     id="path4-1"
     inkscape:connector-curvature="0"
     sodipodi:nodetypes="ssssssccs" />
  <path
     style="fill:#000000;fill-opacity:0.19599998"
     d="m 21.000001,9.0000004 7,6.9999996 0,-6.9999996 z"
     id="path6-4"
     inkscape:connector-curvature="0"
     sodipodi:nodetypes="cccc" />
  <path
     style="fill:#ffffff;fill-opacity:0.39200003"
     d="m 19.000306,2.98e-4 8.991594,8.9997024 -7.613262,0 c -0.672951,0 -1.378332,-0.7134896 -1.378332,-1.3864402 z"
     id="path8-6"
     inkscape:connector-curvature="0"
     sodipodi:nodetypes="ccssc" />
  <path
     style="fill:#ffffff"
     d="m 9.0511543,22.462214 c 0,-0.430579 0.1476274,-0.791446 0.4469827,-1.082601 0.2952548,-0.295255 0.656122,-0.446983 1.086702,-0.446983 0.418278,0 0.775044,0.151728 1.066197,0.446983 0.295255,0.291155 0.442883,0.652022 0.442883,1.082601 0,0.418277 -0.147628,0.775044 -0.442883,1.074399 -0.291153,0.291154 -0.647919,0.434681 -1.066197,0.434681 -0.43058,0 -0.7914472,-0.143527 -1.086702,-0.434681 C 9.1987817,23.24546 9.0511543,22.884593 9.0511543,22.462214 m -0.090217,-6.901582 0,2.542473 c 3.247803,0 5.888693,2.64089 5.888693,5.896895 l 2.550675,0 c 0,-4.662567 -3.785004,-8.439368 -8.439368,-8.439368 z M 8.9650417,10 l 0,2.809021 c 6.1675453,0 11.1745743,5.015232 11.1745743,11.186877 l 2.821324,0 C 22.96094,16.265963 16.686775,10 8.9650417,10 z"
     id="path10"
     inkscape:connector-curvature="0" />
</svg>

<svg xmlns="http://www.w3.org/2000/svg" viewBox="0 0 32 32">
 <path d="m 5.336 0 c -0.687 0 -1.336 0.676 -1.336 1.394 l 0 29.21 c 0 0.676 0.687 1.394 1.336 1.394 l 21.327 0 c 0.648 0 1.336 -0.717 1.336 -1.394 l 0.001 -21.606 -9 -9 z" style="fill:#ff6401;fill-opacity:1"/>
 <path d="m 21 9 7 7 0 -7 z" style="fill:#000;fill-opacity:0.196"/>
 <path d="m 19 0 8.992 9 -7.613 0 c -0.673 0 -1.378 -0.713 -1.378 -1.386 z" style="fill:#fff;fill-opacity:0.392"/>
 <path d="m 9.05 22.462 c 0 -0.431 0.148 -0.791 0.447 -1.083 0.295 -0.295 0.656 -0.447 1.087 -0.447 0.418 0 0.775 0.152 1.066 0.447 0.295 0.291 0.443 0.652 0.443 1.083 0 0.418 -0.148 0.775 -0.443 1.074 -0.291 0.291 -0.648 0.435 -1.066 0.435 -0.431 0 -0.791 -0.144 -1.087 -0.435 c -0.299 -0.291 -0.447 -0.652 -0.447 -1.074 m -0.09 -6.902 0 2.542 c 3.248 0 5.889 2.641 5.889 5.897 l 2.551 0 c 0 -4.663 -3.785 -8.439 -8.439 -8.439 z m 0.004 -5.561 l 0 2.809 c 6.168 0 11.175 5.02 11.175 11.187 l 2.821 0 c 0 -7.73 -6.274 -13.996 -13.996 -13.996 z" style="fill:#fff"/>
</svg>
